polaris-icons/icons/new-icons/VariantMajor.svg

<svg width="20" height="20" viewBox="0 0 20 20" fill="none" xmlns="http://www.w3.org/2000/svg">
<path fill-rule="evenodd" clip-rule="evenodd" d="M6.0103 6.0103C6.13175 4.60376 7.31198 3.5 8.75 3.5H13.75C15.2688 3.5 16.5 4.73122 16.5 6.25V11.25C16.5 12.688 15.3962 13.8683 13.9897 13.9897C13.8682 15.3962 12.688 16.5 11.25 16.5H6.25C5.57521 16.5 4.95718 16.257 4.47868 15.8536C4.41256 15.8132 4.35012 15.7643 4.29289 15.7071C4.23567 15.6499 4.18682 15.5874 4.14637 15.5213C3.74304 15.0428 3.5 14.4248 3.5 13.75V8.75C3.5 7.31198 4.60376 6.13175 6.0103 6.0103ZM7.525 6H11.25C11.9248 6 12.5428 6.24304 13.0213 6.64637C13.0874 6.68682 13.1499 6.73567 13.2071 6.79289C13.2643 6.85012 13.3132 6.91256 13.3536 6.97868C13.757 7.45718 14 8.07521 14 8.75V12.475C14.5706 12.3592 15 11.8547 15 11.25V6.25C15 5.55964 14.4404 5 13.75 5H8.75C8.14526 5 7.64082 5.42944 7.525 6ZM6.25 7.5H11.0858L5 13.5858V8.75C5 8.05964 5.55964 7.5 6.25 7.5ZM11.25 15H6.41421L12.5 8.91421V13.75C12.5 14.4404 11.9404 15 11.25 15Z" fill="#4A4A4A"/>
</svg>

<svg viewBox="0 0 20 20" xmlns="http://www.w3.org/2000/svg"><path fill-rule="evenodd" d="M6.01 6.01a2.75 2.75 0 0 1 2.74-2.51h5a2.75 2.75 0 0 1 2.75 2.75v5a2.75 2.75 0 0 1-2.51 2.74 2.75 2.75 0 0 1-2.74 2.51h-5a2.739 2.739 0 0 1-1.771-.646 1.001 1.001 0 0 1-.333-.333 2.739 2.739 0 0 1-.646-1.771v-5a2.75 2.75 0 0 1 2.51-2.74Zm1.515-.01h3.725c.675 0 1.293.243 1.771.646a1.003 1.003 0 0 1 .333.333c.403.478.646 1.096.646 1.771v3.725c.57-.116 1-.62 1-1.225v-5c0-.69-.56-1.25-1.25-1.25h-5c-.605 0-1.11.43-1.225 1Zm-1.275 1.5h4.836l-6.086 6.086v-4.836c0-.69.56-1.25 1.25-1.25Zm5 7.5h-4.836l6.086-6.086v4.836c0 .69-.56 1.25-1.25 1.25Z" fill="#5C5F62"/></svg>
